!!!OTL: Through For The Night
!!!MPN: Berry, Emmett
!!!OAT: Hodges, Johnny
!!!OAL: The Blues
!!!ODL: 1952-12-11
!!!COM: Young, Trummy
!!!ODT: ????
**kern
*Trd-1c-2
*ITromp
*ITrd1c2
*clefG2
*F:
*k[b-]
*M4/4
=1-
2r
8d/L
8f/J
4a\
=2
4dd\
8dd\L
[8a\J
4a\]
4r
=3
2r
8d/L
8f/
8a/
8cc/J
=4
4b-\
8d/L
8f/J
8a\
4.dd\
=5
8a/L
8g/J
[4g/
4g/]
4r
=6
4r
8d/L
8f/J
4a\
4dd\
=7
4a\
8d/L
[8d/J
4d/]
4r
=8
2r
8d/L
8f/
8a/
8cc/J
=9
8a/L
8d/J
8r
[8a\
4.a\]
8e/
=10
8g/
4.e/
2A/
=11
4r
8d/L
8f/J
8a\L
8cc\
8b-\
8f\J
=12
4a\
8d/L
8f/J
8a/L
8a-/
8g/
8g-/J
=13
4f/
4r
4r
8e/L
8a/J
=14
4e/
8e/L
[8d/J
8d/]
4.a\
=15
8e/
4d/
[8a\
4a\]
8e/L
8d/J
=16
4A/
8d/L
8f/J
8a/L
8g/
8f/
8c/J
=17||
8e-/
8r
4r
2r
==
*-
!!!OCL: Hubert Leveille Gauvin
!!!ENC: Hubert Leveille Gauvin
!!!END: 2018-09-15